public/static/img/user/password.svg

<svg width="24" height="24" viewBox="0 0 24 24" fill="none" xmlns="http://www.w3.org/2000/svg">
<path d="M20.28 21.9951H4.53C3.72 22.0784 3 21.0787 3 20.5788V11.1644C3 10.1647 4.17 9.49816 4.8 9.49816H5.7V6.99878C5.7 4.16614 8.94 2 12 2C15.06 2 18.3 4.16614 18.3 6.99878V9.49816H19.2C19.92 9.49816 21 10.0814 21 11.1644V20.5788C20.91 21.0787 21.09 21.9951 20.28 21.9951ZM16.41 6.99878C16.41 5.08258 13.98 3.66626 11.91 3.66626C9.84 3.66626 7.41 5.08258 7.41 6.99878V9.49816H16.41V6.99878ZM19.11 11.1644H4.71V20.3288H19.11L19.38 20.5788L19.11 11.1644ZM12.81 15.9133V17.8295C12.81 18.3293 12.45 18.6626 11.91 18.6626C11.37 18.6626 11.01 18.246 11.01 17.8295V15.9133C10.47 15.6633 10.11 15.0801 10.11 14.4969C10.11 13.5805 10.92 12.8307 11.91 12.8307C12.9 12.8307 13.71 13.5805 13.71 14.4969C13.71 15.0801 13.35 15.6633 12.81 15.9133Z" fill="white"/>
</svg>

<svg width="24" height="24" fill="none" xmlns="http://www.w3.org/2000/svg"><path d="M20.28 21.995H4.53C3.72 22.078 3 21.08 3 20.58v-9.415c0-1 1.17-1.666 1.8-1.666h.9v-2.5C5.7 4.167 8.94 2 12 2c3.06 0 6.3 2.166 6.3 4.999v2.5h.9c.72 0 1.8.582 1.8 1.665v9.415c-.09.5.09 1.416-.72 1.416ZM16.41 7c0-1.916-2.43-3.333-4.5-3.333S7.41 5.083 7.41 7v2.5h9V7Zm2.7 4.165H4.71v9.165h14.4l.27.25-.27-9.415Zm-6.3 4.75v1.915c0 .5-.36.834-.9.834s-.9-.417-.9-.834v-1.916c-.54-.25-.9-.833-.9-1.416 0-.916.81-1.666 1.8-1.666s1.8.75 1.8 1.666c0 .583-.36 1.166-.9 1.416Z" fill="#fff"/></svg>
